X:64
T:Gay Gordons
T:Monck's March
M:2/4
L:1/8
K:G
"G"G2 "G/B"GB | "Am"A2 "D"Ac | "G"Bd "C"ge | "D"d2 dc |
"C"Bd BG | "D"Ac AF | "C"G2 "D"G>A |1 "G"GD EF :|2 "G"G2 Bc ||
"G"d>e dc | "G/B"B2 B2 | "Am"c>d cB | "D"A2 A2 |
"G"d>e dc | "G/B"B2 B2 | "C"cd ec | "D"Ac BA |
"G"G2 "G/B"GB | "Am"A2 "D"Ac | "G"Bd "C"ge | "D"d2 dc |
"C"Bd BG | "D"Ac AF | "C"G2 "D"G>A | "G"G2 Bc ||
%%newpage

